assets/Volcano/Flat/volcano_flat.svg

<svg width="32" height="32" viewBox="0 0 32 32" fill="none" xmlns="http://www.w3.org/2000/svg">
<path d="M17.17 6C18.2746 6 19.17 5.10457 19.17 4C19.17 2.89543 18.2746 2 17.17 2C16.0655 2 15.17 2.89543 15.17 4C15.17 5.10457 16.0655 6 17.17 6Z" fill="#9B9B9B"/>
<path d="M19.17 8C20.2746 8 21.17 7.10457 21.17 6C21.17 4.89543 20.2746 4 19.17 4C18.0655 4 17.17 4.89543 17.17 6C17.17 7.10457 18.0655 8 19.17 8Z" fill="#D3D3D3"/>
<path d="M19.85 6H16.17C16.17 4.89543 15.2746 4 14.17 4C13.0655 4 12.17 4.89543 12.17 6H11C9.89543 6 9 6.89543 9 8C9 9.10457 9.89543 10 11 10H12.5325C12.8286 10 13 10.1966 13 10.4675V13H19V10.4675C19 10.201 19.2079 10 19.4675 10H19.85H22C23.1046 10 24 9.10457 24 8C24 6.89543 23.1046 6 22 6H19.85Z" fill="#E6E6E6"/>
<path d="M19.6133 14.3672L10.1329 14.9922L4.1424 27.8672C3.67976 28.8616 4.40571 30 5.5024 30H25.5027C25.5027 30 20.5839 15.9556 19.6133 14.3672Z" fill="#321B41"/>
<path d="M25.1111 30L22.6241 23.6048C22.2478 22.6373 21.3162 22 20.2781 22C19.5062 22 18.812 21.53 18.5253 20.8133L17 17V14.6183L21.6133 14.3672L27.8639 27.8699C28.3241 28.864 27.5981 30 26.5027 30H25.1111Z" fill="#533566"/>
<path d="M10 16C10 16 10 15.6598 10 15.4437C10 15.2276 10.2545 14.7023 10.2545 14.7023C10.2545 14.7023 11.0249 13.0353 11.2771 12.4399C11.4167 12.1104 11.6608 11.543 12.0406 11.2282C12.3468 10.9743 12.7723 10.9341 13.0632 10.9341C13.4518 10.9341 16.5575 10.9575 19 10.9765C19.6567 10.9816 19.9987 11.1403 20.422 11.7861C21.0227 13.078 21.6233 14.37 21.6233 14.37C21.6233 14.37 22 15.2766 22 15.7526V18C22 18.5523 21.5523 19 21 19C20.4477 19 20 18.5523 20 18C20 17.4477 19.5523 17 19 17C18.4477 17 18 17.4477 18 18V20C18 20.5523 17.5523 21 17 21C16.4477 21 16 20.5523 16 20V19C16 18.4477 15.5523 18 15 18C14.4477 18 14 18.4477 14 19V26C14 26.5523 13.5523 27 13 27C12.4477 27 12 26.5523 12 26C12 26 12 18.6435 12 18C12 17.3565 11.6129 17 11 17C10.3871 17 10 16.5523 10 16Z" fill="#FF6723"/>
<path d="M16 10.6001C17.6569 10.6001 19 9.25695 19 7.6001C19 5.94324 17.6569 4.6001 16 4.6001C14.3431 4.6001 13 5.94324 13 7.6001C13 9.25695 14.3431 10.6001 16 10.6001Z" fill="#F4F4F4"/>
</svg>

<svg xmlns="http://www.w3.org/2000/svg" width="32" height="32" fill="none"><path fill="#9B9B9B" d="M17.17 6a2 2 0 1 0 0-4 2 2 0 0 0 0 4Z"/><path fill="#D3D3D3" d="M19.17 8a2 2 0 1 0 0-4 2 2 0 0 0 0 4Z"/><path fill="#E6E6E6" d="M19.85 6h-3.68a2 2 0 1 0-4 0H11a2 2 0 1 0 0 4h1.533c.296 0 .467.197.467.467V13h6v-2.533c0-.266.208-.467.468-.467H22a2 2 0 1 0 0-4h-2.15Z"/><path fill="#321B41" d="m19.613 14.367-9.48.625-5.99 12.875A1.5 1.5 0 0 0 5.502 30h20s-4.92-14.044-5.89-15.633Z"/><path fill="#533566" d="m25.111 30-2.487-6.395A2.517 2.517 0 0 0 20.278 22c-.772 0-1.466-.47-1.753-1.187L17 17v-2.382l4.613-.25 6.25 13.502a1.5 1.5 0 0 1-1.36 2.13H25.11Z"/><path fill="#FF6723" d="M10 16v-.556c0-.216.255-.742.255-.742s.77-1.667 1.022-2.262c.14-.33.384-.897.764-1.212.306-.254.731-.294 1.022-.294.389 0 3.495.024 5.937.043.657.005.999.163 1.422.81l1.201 2.583s.377.907.377 1.383V18a1 1 0 1 1-2 0 1 1 0 1 0-2 0v2a1 1 0 1 1-2 0v-1a1 1 0 1 0-2 0v7a1 1 0 1 1-2 0v-8c0-.643-.387-1-1-1s-1-.448-1-1Z"/><path fill="#F4F4F4" d="M16 10.6a3 3 0 1 0 0-6 3 3 0 0 0 0 6Z"/></svg>
